X:0144
M:2/4
L:1/8
Q:1/2=60
K:G
ec (c/B/c/d/)|ecc2|ec (c/B/c/d/)|e2 c2:|
dB (B/A/B/c/)|dBB2|dB (d/c/B/A/)|A2 G2 |

